assets/svg/icon_categories_travel.svg

<svg width="24" height="24" viewBox="0 0 24 24" fill="none" xmlns="http://www.w3.org/2000/svg">
    <path
        d="M14.7314 3.88269L15.1556 3.45843L15.1556 3.45843L14.7314 3.88269ZM6.51716 16.0969L6.94142 15.6726H6.94142L6.51716 16.0969ZM11.0828 16.0969L10.6586 15.6726L10.6586 15.6726L11.0828 16.0969ZM7.8 7.01406C7.8 6.68269 7.53137 6.41406 7.2 6.41406C6.86863 6.41406 6.6 6.68269 6.6 7.01406H7.8ZM7.8 16.6141C7.8 16.2827 7.53137 16.0141 7.2 16.0141C6.86863 16.0141 6.6 16.2827 6.6 16.6141H7.8ZM6.6 19.0141C6.6 19.3454 6.86863 19.6141 7.2 19.6141C7.53137 19.6141 7.8 19.3454 7.8 19.0141H6.6ZM17.4 7.01406C17.4 6.68269 17.1314 6.41406 16.8 6.41406C16.4686 6.41406 16.2 6.68269 16.2 7.01406H17.4ZM16.2 19.0141C16.2 19.3454 16.4686 19.6141 16.8 19.6141C17.1314 19.6141 17.4 19.3454 17.4 19.0141H16.2ZM10.4 7.21406H13.6V6.01406H10.4V7.21406ZM13.6 18.8141H10.4V20.0141H13.6V18.8141ZM10.4 18.8141C8.87454 18.8141 7.79081 18.8128 6.96868 18.7023C6.16381 18.594 5.70009 18.3911 5.36152 18.0525L4.51299 18.9011C5.11168 19.4998 5.87084 19.7655 6.80878 19.8916C7.72946 20.0153 8.90847 20.0141 10.4 20.0141V18.8141ZM3.4 13.0141C3.4 14.5056 3.39873 15.6846 3.52251 16.6053C3.64861 17.5432 3.9143 18.3024 4.51299 18.9011L5.36152 18.0525C5.02295 17.714 4.82002 17.2503 4.71181 16.4454C4.60127 15.6233 4.6 14.5395 4.6 13.0141H3.4ZM19.4 13.0141C19.4 14.5395 19.3987 15.6233 19.2882 16.4454C19.18 17.2503 18.977 17.714 18.6385 18.0525L19.487 18.9011C20.0857 18.3024 20.3514 17.5432 20.4775 16.6053C20.6013 15.6846 20.6 14.5056 20.6 13.0141H19.4ZM13.6 20.0141C15.0915 20.0141 16.2705 20.0153 17.1912 19.8916C18.1292 19.7655 18.8883 19.4998 19.487 18.9011L18.6385 18.0525C18.2999 18.3911 17.8362 18.594 17.0313 18.7023C16.2092 18.8128 15.1255 18.8141 13.6 18.8141V20.0141ZM13.6 7.21406C15.1255 7.21406 16.2092 7.21534 17.0313 7.32587C17.8362 7.43408 18.2999 7.63702 18.6385 7.97558L19.487 7.12706C18.8883 6.52837 18.1292 6.26267 17.1912 6.13657C16.2705 6.01279 15.0915 6.01406 13.6 6.01406V7.21406ZM20.6 13.0141C20.6 11.5225 20.6013 10.3435 20.4775 9.42284C20.3514 8.48491 20.0857 7.72575 19.487 7.12706L18.6385 7.97558C18.977 8.31415 19.18 8.77787 19.2882 9.58274C19.3987 10.4049 19.4 11.4886 19.4 13.0141H20.6ZM10.4 6.01406C8.90847 6.01406 7.72946 6.01279 6.80878 6.13657C5.87084 6.26267 5.11168 6.52837 4.51299 7.12706L5.36152 7.97558C5.70009 7.63702 6.16381 7.43408 6.96868 7.32587C7.79081 7.21534 8.87454 7.21406 10.4 7.21406V6.01406ZM4.6 13.0141C4.6 11.4886 4.60127 10.4049 4.71181 9.58274C4.82002 8.77787 5.02295 8.31415 5.36152 7.97558L4.51299 7.12706C3.9143 7.72575 3.64861 8.48491 3.52251 9.42284C3.39873 10.3435 3.4 11.5225 3.4 13.0141H4.6ZM12 4.01406C12.7712 4.01406 13.2893 4.01534 13.6757 4.06729C14.0449 4.11692 14.2029 4.2027 14.3071 4.30696L15.1556 3.45843C14.7913 3.09405 14.3378 2.94552 13.8356 2.87799C13.3506 2.81279 12.7373 2.81406 12 2.81406V4.01406ZM15.8 6.61406C15.8 5.87678 15.8013 5.26345 15.7361 4.77848C15.6685 4.27624 15.52 3.8228 15.1556 3.45843L14.3071 4.30696C14.4114 4.41121 14.4971 4.56921 14.5468 4.93838C14.5987 5.32481 14.6 5.84285 14.6 6.61406H15.8ZM12 2.81406C11.2627 2.81406 10.6494 2.81279 10.1644 2.87799C9.66218 2.94552 9.20874 3.09405 8.84437 3.45843L9.69289 4.30696C9.79715 4.2027 9.95514 4.11692 10.3243 4.06729C10.7107 4.01534 11.2288 4.01406 12 4.01406V2.81406ZM9.4 6.61406C9.4 5.84285 9.40127 5.32481 9.45323 4.93838C9.50286 4.56921 9.58864 4.41121 9.69289 4.30696L8.84437 3.45843C8.47999 3.8228 8.33145 4.27624 8.26393 4.77848C8.19873 5.26345 8.2 5.87678 8.2 6.61406H9.4ZM7.2 14.4141H10.4V13.2141H7.2V14.4141ZM10.6 14.6141V15.4141H11.8V14.6141H10.6ZM7 15.4141V14.6141H5.8V15.4141H7ZM10.4 15.6141H7.2V16.8141H10.4V15.6141ZM5.8 15.4141C5.8 15.5857 5.79873 15.7747 5.82 15.9329C5.84359 16.1084 5.90425 16.3325 6.09289 16.5212L6.94142 15.6726C6.9725 15.7037 6.99302 15.7381 7.0043 15.7655C7.01361 15.7882 7.01236 15.7958 7.00929 15.773C7.00618 15.7499 7.00325 15.712 7.00164 15.6482C7.00004 15.5848 7 15.5106 7 15.4141H5.8ZM7.2 15.6141C7.10349 15.6141 7.02924 15.614 6.96582 15.6124C6.9021 15.6108 6.86421 15.6079 6.84104 15.6048C6.81826 15.6017 6.82591 15.6005 6.84853 15.6098C6.87594 15.621 6.91034 15.6416 6.94142 15.6726L6.09289 16.5212C6.28153 16.7098 6.50568 16.7705 6.68114 16.7941C6.83934 16.8153 7.0284 16.8141 7.2 16.8141V15.6141ZM10.6 15.4141C10.6 15.5106 10.6 15.5848 10.5984 15.6482C10.5968 15.712 10.5938 15.7499 10.5907 15.773C10.5876 15.7958 10.5864 15.7882 10.5957 15.7655C10.607 15.7381 10.6275 15.7037 10.6586 15.6726L11.5071 16.5212C11.6957 16.3325 11.7564 16.1084 11.78 15.9329C11.8013 15.7747 11.8 15.5857 11.8 15.4141H10.6ZM10.4 16.8141C10.5716 16.8141 10.7607 16.8153 10.9189 16.7941C11.0943 16.7705 11.3185 16.7098 11.5071 16.5212L10.6586 15.6726C10.6897 15.6416 10.7241 15.621 10.7515 15.6098C10.7741 15.6005 10.7817 15.6017 10.759 15.6048C10.7358 15.6079 10.6979 15.6108 10.6342 15.6124C10.5708 15.614 10.4965 15.6141 10.4 15.6141V16.8141ZM10.4 14.4141C10.4965 14.4141 10.5708 14.4141 10.6342 14.4157C10.6979 14.4173 10.7358 14.4202 10.759 14.4234C10.7817 14.4264 10.7741 14.4277 10.7515 14.4184C10.7241 14.4071 10.6897 14.3866 10.6586 14.3555L11.5071 13.507C11.3185 13.3183 11.0943 13.2576 10.9189 13.2341C10.7607 13.2128 10.5716 13.2141 10.4 13.2141V14.4141ZM11.8 14.6141C11.8 14.4425 11.8013 14.2534 11.78 14.0952C11.7564 13.9197 11.6957 13.6956 11.5071 13.507L10.6586 14.3555C10.6275 14.3244 10.607 14.29 10.5957 14.2626C10.5864 14.24 10.5876 14.2323 10.5907 14.2551C10.5938 14.2783 10.5968 14.3162 10.5984 14.3799C10.6 14.4433 10.6 14.5176 10.6 14.6141H11.8ZM7.2 13.2141C7.0284 13.2141 6.83934 13.2128 6.68114 13.2341C6.50568 13.2576 6.28153 13.3183 6.09289 13.507L6.94142 14.3555C6.91034 14.3866 6.87594 14.4071 6.84853 14.4184C6.82591 14.4277 6.81826 14.4264 6.84104 14.4234C6.86421 14.4202 6.9021 14.4173 6.96582 14.4157C7.02924 14.4141 7.10349 14.4141 7.2 14.4141V13.2141ZM7 14.6141C7 14.5176 7.00004 14.4433 7.00164 14.3799C7.00325 14.3162 7.00618 14.2783 7.00929 14.2551C7.01236 14.2323 7.01361 14.24 7.0043 14.2626C6.99302 14.29 6.9725 14.3244 6.94142 14.3555L6.09289 13.507C5.90425 13.6956 5.84359 13.9197 5.82 14.0952C5.79873 14.2534 5.8 14.4425 5.8 14.6141H7ZM6.6 7.01406V13.8141H7.8V7.01406H6.6ZM6.6 16.6141V19.0141H7.8V16.6141H6.6ZM16.2 7.01406V19.0141H17.4V7.01406H16.2Z"
        fill="#9A9A9A" />
</svg>

<svg xmlns="http://www.w3.org/2000/svg" width="24" height="24" fill="none"><path fill="#9A9A9A" d="m14.731 3.883.425-.425zM6.517 16.097l.424-.424zm4.566 0-.424-.424zM7.8 7.014a.6.6 0 0 0-1.2 0zm0 9.6a.6.6 0 1 0-1.2 0zm-1.2 2.4a.6.6 0 0 0 1.2 0zm10.8-12a.6.6 0 1 0-1.2 0zm-1.2 12a.6.6 0 0 0 1.2 0zm-5.8-11.8h3.2v-1.2h-3.2zm3.2 11.6h-3.2v1.2h3.2zm-3.2 0c-1.525 0-2.61-.001-3.431-.112-.805-.108-1.269-.31-1.607-.65l-.849.85c.599.598 1.358.863 2.296.99.92.123 2.1.122 3.591.122zm-7-5.8c0 1.492-.001 2.67.123 3.591.126.938.391 1.697.99 2.296l.849-.849c-.34-.338-.542-.802-.65-1.607-.11-.822-.112-1.905-.112-3.43zm16 0c0 1.526-.001 2.61-.112 3.431-.108.805-.311 1.269-.65 1.607l.849.85c.599-.6.864-1.359.99-2.297.124-.92.123-2.1.123-3.59zm-5.8 7c1.492 0 2.67.001 3.591-.122.938-.127 1.697-.392 2.296-.99l-.848-.85c-.34.34-.803.542-1.608.65-.822.11-1.905.112-3.431.112zm0-12.8c1.526 0 2.61.001 3.431.112.805.108 1.269.311 1.608.65l.848-.849c-.599-.599-1.358-.864-2.296-.99-.92-.124-2.1-.123-3.591-.123zm7 5.8c0-1.491.001-2.67-.123-3.591-.126-.938-.391-1.697-.99-2.296l-.848.849c.338.338.541.802.65 1.607.11.822.111 1.906.111 3.431zm-10.2-7c-1.492 0-2.67-.001-3.591.123-.938.126-1.697.391-2.296.99l.849.849c.338-.339.802-.542 1.607-.65.822-.11 1.906-.112 3.431-.112zm-5.8 7c0-1.525.001-2.61.112-3.431.108-.805.311-1.269.65-1.607l-.849-.849c-.599.599-.864 1.358-.99 2.296-.124.92-.123 2.1-.123 3.591zm7.4-9c.771 0 1.29.001 1.676.053.369.05.527.136.631.24l.849-.849c-.365-.364-.818-.512-1.32-.58-.485-.065-1.099-.064-1.836-.064zm3.8 2.6c0-.737.001-1.35-.064-1.836-.068-.502-.216-.955-.58-1.32l-.849.849c.104.104.19.262.24.631.052.387.053.905.053 1.676zm-3.8-3.8c-.737 0-1.35-.001-1.836.064-.502.068-.955.216-1.32.58l.849.849c.104-.104.262-.19.631-.24.387-.052.905-.053 1.676-.053zm-2.6 3.8c0-.771.001-1.29.053-1.676.05-.369.136-.527.24-.631l-.849-.849c-.364.365-.513.818-.58 1.32-.065.485-.064 1.099-.064 1.836zm-2.2 7.8h3.2v-1.2H7.2zm3.4.2v.8h1.2v-.8zm-3.6.8v-.8H5.8v.8zm3.4.2H7.2v1.2h3.2zm-4.6-.2c0 .172-.001.36.02.519.024.175.084.4.273.588l.848-.848a.3.3 0 0 1 .063.092c.01.023.008.03.005.008a1 1 0 0 1-.007-.125L7 15.414zm1.4.2c-.097 0-.17 0-.234-.002a1 1 0 0 1-.125-.007c-.023-.003-.015-.005.008.005a.3.3 0 0 1 .092.063l-.848.848c.189.189.413.25.588.273.158.021.347.02.519.02zm3.4-.2c0 .097 0 .17-.002.234a1 1 0 0 1-.007.125c-.003.023-.005.015.005-.008a.3.3 0 0 1 .063-.092l.848.848a1 1 0 0 0 .273-.588c.021-.158.02-.347.02-.519zm-.2 1.4c.172 0 .36.001.519-.02a1 1 0 0 0 .588-.273l-.848-.848a.3.3 0 0 1 .092-.063c.023-.01.03-.008.008-.005a1 1 0 0 1-.125.007l-.234.002zm0-2.4c.096 0 .17 0 .234.002a1 1 0 0 1 .125.007c.023.003.015.005-.008-.005a.3.3 0 0 1-.092-.062l.848-.849a1 1 0 0 0-.588-.273c-.158-.021-.347-.02-.519-.02zm1.4.2c0-.171.001-.36-.02-.519a1 1 0 0 0-.273-.588l-.848.848a.3.3 0 0 1-.063-.092c-.01-.023-.008-.03-.005-.008.003.023.006.061.007.125l.002.234zm-4.6-1.4c-.172 0-.36-.001-.519.02a1 1 0 0 0-.588.273l.848.848a.3.3 0 0 1-.092.063c-.023.01-.03.008-.008.005.023-.003.061-.006.125-.007.063-.002.137-.002.234-.002zm-.2 1.4c0-.096 0-.17.002-.234.001-.064.004-.102.007-.125s.005-.015-.005.008a.3.3 0 0 1-.063.092l-.848-.848a1 1 0 0 0-.273.588c-.021.158-.02.348-.02.52zm-.4-7.6v6.8h1.2v-6.8zm0 9.6v2.4h1.2v-2.4zm9.6-9.6v12h1.2v-12z"/></svg>
